src/img/logo-gray.svg

<?xml version="1.0" encoding="UTF-8" standalone="no"?>
<svg width="86px" height="77px" viewBox="0 0 86 77" version="1.1" xmlns="http://www.w3.org/2000/svg" xmlns:xlink="http://www.w3.org/1999/xlink">
    <!-- Generator: sketchtool 3.7 (28169) - http://www.bohemiancoding.com/sketch -->
    <title>2899A073-FF8C-4D1E-9BB2-54B2C02A1782</title>
    <desc>Created with sketchtool.</desc>
    <defs>
        <path d="M63.9728894,-4.26325641e-14 L61.5575672,-4.26325641e-14 C40.0524237,-3.55271368e-14 22.501395,16.9327918 21.5049827,38.2054461 L66.3882116,38.2054461 C76.9368458,38.2054461 85.4882034,29.6551854 85.4882034,19.1027231 C85.4882034,8.55258043 76.9356345,5.1159077e-13 66.3882116,5.1159077e-13 L63.9728894,5.1159077e-13 L63.9728894,-4.26325641e-14 Z" id="path-1"></path>
    </defs>
    <g id="Page-1" stroke="none" stroke-width="1" fill="none" fill-rule="evenodd">
        <g id="desktop" transform="translate(-1730.000000, -8625.000000)">
            <g id="footer" transform="translate(0.000000, 8400.000000)">
                <g id="logo_gray" transform="translate(1730.000000, 225.000000)">
                    <g id="Group-14">
                        <path d="M21.5874679,76.4705882 L24.0027901,76.4705882 C45.5079336,76.4705882 63.0589623,59.5377965 64.0553745,38.2651421 L19.1721457,38.2651421 C8.6235115,38.2651421 0.0721539071,46.8154029 0.0721539071,57.3678652 C0.0721539071,67.9180078 8.62472278,76.4705882 19.1721457,76.4705882 L21.5874679,76.4705882 L21.5874679,76.4705882 Z" id="Mask" fill="#808591"></path>
                        <mask id="mask-2" fill="white">
                            <use xlink:href="#path-1"></use>
                        </mask>
                        <use id="Mask" fill="#808591" opacity="0.5" xlink:href="#path-1"></use>
                    </g>
                </g>
            </g>
        </g>
    </g>
</svg>

<svg width="86" height="77" viewBox="0 0 86 77" xmlns="http://www.w3.org/2000/svg" xmlns:xlink="http://www.w3.org/1999/xlink"><title>2899A073-FF8C-4D1E-9BB2-54B2C02A1782</title><defs><path d="M63.973 0h-2.415C40.052 0 22.5 16.933 21.505 38.205h44.883c10.549 0 19.1-8.55 19.1-19.102C85.488 8.553 76.936 0 66.388 0h-2.415z" id="a"/></defs><g fill="#808591" fill-rule="evenodd"><path d="M21.587 76.47h2.416c21.505 0 39.056-16.932 40.052-38.205H19.172c-10.548 0-19.1 8.55-19.1 19.103 0 10.55 8.553 19.103 19.1 19.103h2.415z"/><use opacity=".5" xlink:href="#a"/></g></svg>
